X:5899
T:Gan Ainm
R:strathspey
S:Tommy Peoples & Dermot Byrnes
H:
N:
D:Concert, Galway 
Z:Adrian Scahill
M:4/4
L:1/8
K:D
D2FA DAFA|A,2CE A,ECE|D2FA DAFA|(3Bcd (3efg (3fed (3cBA|\
D2FA DAFA|A,2CE A,ECE|D2FA DAFA|(3Bcd (3efg f<d dA||\
d2fa gefA|B2gf (3efd (3cBA|d2fa gefd|(3Bcd (3cde  f<d dA|\
d2fa gefA|B2gf (3efd (3cBA|(3fga (3gfe (3dcB (3AGF|(3GAB (3ABc (3dAG (3FGE||


